X: 30361
M: 2/4
L: 1/16
K: Gmix
|:\
.e2(fe) .d2(ed) | cBcd efed | c2A2 A2(fe) |1 dcBA GFEF :|2 dcBA G4 |]
|:\
e2ef e2ed | cdef g2e2 | d2de d2dc | Bcde f2ef |\
g2e2 d2ed | cBcd efed | c2A2A2 fe | dcBA G4 :|


